X:1
T:The Bleeding Nun
T:The Bleeding Nun
T:a favorite song in the pantomime of Raymond & Agnes 
T:Alexander Reinagle
T:Mr. Twaits
T:credit: Library of Congress, Music Division - public domain - https://lccn.loc.gov/2015560777
T:credit: Library of Congress, Music Division - public domain - https://lccn.loc.gov/2015560777
C:Alexander Reinagle
Z:M. Twaits
Z:credit: Library of Congress, Music Division - public domain - https://lccn.loc.gov/2015560777
%%score ( 1 2 ) { ( 3 6 ) | ( 4 5 ) }
L:1/8
Q:1/4=50
M:3/4
K:F
V:1 treble nm="Violin"
V:2 treble 
V:3 treble nm="Piano"
V:6 treble 
V:4 treble 
V:5 treble 
V:1
"^Largo"!p! d ^c d | A3 f e f | c3 d ^c d | A3!f! F G A | D3 B A ^c | d e f Tg a ^c | [Fd]3 || %7
w: |||||||
 d ^c d | A3 f !turn!e f | c3 d !turn!^c d | A3 F G A | d3 |: A A F | c3 ^c d e | f3 B A G | %15
w: On each fifth|day of each fifth|year the bleed\- ing|Nun she doth ap\-|pear|And slow\- ly|walks the Cas\- tle|round with steps that|
 d3 B A ^C | D3 :| B A ^c | d e f Tg a [G^c] | d3 ||"^2.\nd \nVERSE.\n\n" d ^c d | A3 f e f | %22
w: mark the trem\- bling|ground.||||They say her|Lord with pain\- ful|
 A3 f e f | A3 f e f | d3 |: A A F | c3 ^c d e | f3 B A G | d3 B A ^C | D3 :| B A ^c | %31
w: dart sa\- vage\- ly|pierc'd her ten\- der|hearth|And rude\- ly|tore that beau\- tious|breast which o'er and|o'er he had car\-|ress'd||
 d e f Tg b [G^c] | d2 z ||"^3.\nd \nVERSE.\n\n" d ^c d | A3 f e f | c3 d ^c d | A3 F G A | d3 |: %38
w: ||Her trou\- bled|spi\- rit each fifth|year with\- in the|drea\- ry hall ap\-|pear|
 A A F | c3 ^c d e | f3 B A G | d3 B A ^C | D3 :| B A ^c | d e f Tg b [G^c] | d3 |] %46
w: And when the|Cas\- tle bell tolls|one ap\- pears just|like the bleed\- ing|Nun.||||
V:2
 x3 | x6 | x6 | x6 | x6 | x6 | x3 || x3 | x6 | x6 | x6 | x3 |: x3 | x6 | x6 | x6 | x3 :| x3 | x6 | %19
 F3 || x3 | x6 | x6 | x6 | x3 |: x3 | x6 | x6 | x6 | x3 :| x3 | x6 | F2 x || x3 | x6 | x6 | x6 | %37
 x3 |: x3 | x6 | x6 | x6 | x3 :| x3 | x6 | F3 |] %46
V:3
!p! d ^cd | A3 fef | c3 d^cd | A3!f! FGA | D3 BA^c | defTg a^c | [Fd]3 || d ^c d | A3 f !turn!e f | %9
w: |||||||On each fifth|day of each fifth|
 c3 d !turn!^c d | A3 F G A | d3 |: A A F | c3 ^c d e | f3 B A G | d3 B A ^C | D3 :| BA^c | %18
w: year the bleed\- ing|Nun she doth ap\-|pear|And slow\- ly|walks the Cas\- tle|round with steps that|mark the trem\- bling|ground.||
 defTg a[G^c] | d3 ||"^2.\nd \nVERSE.\n\n" d ^c d | A3 f e f | A3 f e f | A3 f e f | d3 |: A A F | %26
w: ||They say her|Lord with pain\- ful|dart sa\- vage\- ly|pierc'd her ten\- der|hearth|And rude\- ly|
 c3 ^c d e | f3 B A G | d3 B A ^C | D3 :| BA^c | defTg b[G^c] | d2 z || %33
w: tore that beau\- tious|breast which o'er and|o'er he had car\-|ress'd||||
"^3.\nd \nVERSE.\n\n" d ^c d | A3 f e f | c3 d ^c d | A3 F G A | d3 |: A A F | c3 ^c d e | %40
w: Her trou\- bled|spi\- rit each fifth|year with\- in the|drea\- ry hall ap\-|pear|And when the|Cas\- tle bell tolls|
 f3 B A G | d3 B A ^C | D3 :| BA^c | defTg b[G^c] | d3 |] %46
w: one ap\- pears just|like the bleed\- ing|Nun.||||
V:4
 AGF | E3 =cBA | G3 AGF | E3[K:bass] F,G,A, | D,3 G,F,E, | D,^C,D,B,, A,,A,, | D,2 D,, || %7
 [FA][EG][DF] | [^CE]3 [A=c][GB][FA] | [EG]3 [FA][EG][DF] | [^CE]3[K:bass] F,G,A, | D,3 |: %12
 [F,,F,][F,,F,][F,,F,] | [E,,E,]3 A,,D,A,, | D,3 G,F,E, | D,3 G,A,A,, | D,2 D,, :| G,F,E, | %18
 D,C,D,B,, A,,A,, | D,3 || [FA][EG][DF] | [^CE]3 [A=c][GB][FA] | [DF]3 [FA][EG][DF] | %23
 [^CE]3[K:bass] F,G,A, | D,3 |: F,F,F, | E,3 A,,D,A,, | D,3 G,F,E, | D,3 G, A,A,, | D,2 D,, :| %30
 G,F,E, | D,^C,D,B,, A,,A,, | D,2 D,, || [FA][EG][DF] | [^CE]3 [A=c][GB][FA] | [EG]3 [FA][EG][DF] | %36
 [^CE]3[K:bass] F,G,A, | D,3 |: F,F,F, | E,3 A,,D,A,, | D,3 G,F,E, | D,3 G,A,A,, | D,2 D,, :| %43
 G,F,E, | D,^C,D,B,, A,,A,, | D,2 D,, |] %46
V:5
 FED | ^C3 GGF | E3 FED | ^C3[K:bass] x3 | x6 | x6 | x3 || x3 | x6 | x6 | x3[K:bass] x3 | x3 |: %12
 x3 | x6 | x6 | x6 | x3 :| x3 | x6 | x3 || x3 | x6 | x6 | x3[K:bass] x3 | x3 |: x3 | x6 | x6 | x6 | %29
 x3 :| x3 | x6 | x3 || x3 | x6 | x6 | x3[K:bass] x3 | x3 |: x3 | x6 | x6 | x6 | x3 :| x3 | x6 | %45
 x3 |] %46
V:6
 x3 | x6 | x6 | x6 | x6 | x6 | x3 || x3 | x6 | x6 | x6 | x3 |: x3 | x6 | x6 | x6 | x3 :| x3 | x6 | %19
 F3 || x3 | x6 | x6 | x6 | x3 |: x3 | x6 | x6 | x6 | x3 :| x3 | x6 | F2 x || x3 | x6 | x6 | x6 | %37
 x3 |: x3 | x6 | x6 | x6 | x3 :| x3 | x6 | F3 |] %46

